!!!ONB: MCCC : ICS0003_03 : Extracted Monophonic Melody
!!!COM: Saint-Saëns, Camille
!!!OPR: Album
!!!OMV: 3
!!!SCT: Op.72
!!!ODT: 1884///
**kern
*staff1
=1
*clefG2
*k[f#c#g#]
*A:
*M12/16
16c#
16a
16c#
16c#
16B
16A
16d
16b
16d
16d
16c#
16B
=2
16e#
16cc#
16e#
16e#
16d#
16c#
16a
16ff#
16a
16a
16g#
16f#
=3
16f#
16cc#
16f#
16f#
16e
16d
16d
16b
16d
16d
16c#
16B
=4
16B
16f#
16B
16B
16A
16G#
4.r
=5
16c#
16a
16c#
16c#
16B
16A
16d
16b
16d
16d
16c#
16B
=6
16e#
16cc#
16e#
16e#
16d#
16c#
16a
16ff#
16a
16a
16g#
16f#
=7
16f#
16cc#
16f#
16f#
16e
16d
16d
16b
16d
16d
16c#
16B
=8
16A
16f#
16A
16A
16G#
16F#
4.r
=9
16c#
16cc#
16c#
16cc#
16b
16a
16a
16g#
16f#
16f#
16e
16d
=10
16d
16b
16d
16b
16a
16g#
16g#
16f#
16e
16e
16d
16c#
=11
16c#
16a
16c#
16a
16g#
16f#
16f#
16e
16d
16d
16c#
16B
=12
16B
16b
16c#
16d
16b
16e
16f#
16dd
16g#
16a
16ff#
16b
=13
16cc#
16ccc#
16cc#
16cc#
16b
16ff#
16a
16g#
16f#
16f#
16e
16g#
=14
16b
16bb
16b
16b
16a
16ee
16g#
16f#
16e
16e
16d
16a
=15
16a
16aa
16a
16a
16g#
16dd
16f#
16e
16d
16d
16c#
16g#
=16
16g#
16e
16a
16b
16e
16cc#
16dd
16e
16ee
16ff#
16e
16gg#
=17
8aa
16c#
16cc#
16b
16a
16a
16g#
16f#
16f#
16e
16d#
=18
16d#
16cc#
16d#
16d#
16e
16f#
16f#
16dd#
16f#
16f#
16e
16d#
=19
8.e
8r
16c#
16cc#
16b
16a#
16a#
16g#
16g
=20
16g
16ee
16g
16g
16g#
16a#
16a#
16gg
16a#
16a#
16g#
16f##
=21
16r
16g#
16B
16B
16A#
16G#
16e
16cc#
16e
16e
16d#
16c#
=22
16g
16dd#
16g
16g
16e#
16d#
16b
16gg#
16b
16b
16a#
16g#
=23
16g#
16dd#
16g#
16g#
16f#
16e
16e
16cc#
16e
16e
16d#
16c#
=24
16c#
16g#
16c#
16c#
16B
16A#
4.r
=25
16c
16g#
16c
16c
16A#
16G#
16e#
16cc#
16e#
16e#
16d#
16c#
=26
16g
16dd#
16g
16g
16e#
16d#
16cc
16gg#
16cc
16cc
16a#
16g#
=27
16g#
16gg#
16g#
16g#
16f##
16e#
16e#
16cc#
16e#
16e#
16d#
16c#
=28
16c#
16cc#
16c#
16A#
16G#
16G
4.r
=29
16g#
16gg#
16g#
16g#
16f##
16e#
16e#
16d#
16c#
16c#
16B#
16A#
=30
16g
16gg
16g
16g
16e#
16e
16e
16d
16c
16c
16A#
16G#
=31
16e#
16ee#
16e#
16e#
16d#
16c#
16c#
16B#
16A#
16A#
16G#
16G
=32
16G
16g
16G#
16A#
16g
16c
16d
16a#
16e
16e#
16cc
16g
=33
16a
16aa
16a
16a
16g
16dd
16e#
16e
16d
16d
16c
16g
=34
16g
16gg
16g
16g
16e#
16cc
16e
16d
16c
16c
16A#
16e#
=35
16e#
16ee#
16e#
16e#
16e
16a#
16d
16c
16A#
16A#
16A
16e
=36
16e
16c
16e#
16g
16c
16a
16a#
16c
16cc
16dd
16c
16ee
=37
8ee#
16A
16a
16g
16e#
16e#
16e
16d
16d
16c
16B
=38
16B
16a
16B
16B
16c
16d
16d
16b
16d
16d
16c
16B
=39
8a
16e
16ee
16dd
16cc
16cc
16a#
16a
16a
16g
16e#
=40
16e#
16d##
16e#
16ee#
16ee
16dd
16dd
16cc
16b
16b
16a
16g
=41
16g
16e#
16g
16gg
16ee#
16ee
16ee
16dd
16cc#
16cc#
16b
16a
=42
16a
16aa
16a
16ee#
16ee
16dd
16a#
16aa#
16a#
16gg
16ee#
16ee
=43
16cc
16ccc
16cc
16aa
16gg
16ff#
16dd
16ddd
16dd
16aa#
16aa
16gg
=44
16dd#
16ddd
16dd#
16dd
16cc
16gg
16a#
16a
16g
16g
16e#
16cc
=45
8.g#
16e#
16f##
16g#
16g#
16a#
16gg#
16cc
16dd
16dd#
=46
16dd
16ccc
16dd
16cc
16a#
16ee#
16g#
16f##
16e#
16e#
16d#
16a#
=47
8.a#
16d#
16e#
16g
16g
16g#
16gg
16a#
16b#
16cc#
=48
16cc#
16aa#
16cc#
16b#
16a#
16dd#
16f#
16dd#
16f#
16e#
16f#
16b
=49
16b
16gg#
16b
16a#
16g#
16cc#
16e
16cc#
16e
16d#
16e
16b
=50
16dd#
16ee
16ff#
8r
16dd#
16ff#
16gg#
16aa
8r
16aa
=51
16ddd#
16eee
16fff#
8r
16ddd#
16fff#
16ggg#
16aaa
8r
16fff#
=52
16aaa
16ddd#
16fff#
16aa
16ddd#
16ff#
16aa
16dd#
16ff#
16a
16dd#
16f#
=53
16a#
16e
16g
8.r
4.r
=54
2.r
=55
2.r
=56
8.r
16c#
16e#
16G#
16e#
16g#
16c#
16c#
16a
16c#
=57
16f#
16a
16d
16f#
16b
16d#
16g#
16b
16e
16g#
16cc#
16e#
=58
32r
32f#
32a
32cc#
32ff#
32aa
8.ccc#
32r
32f#
32b
32dd
32ff#
32bb
8.ddd
=59
32r
32g#
32cc#
32ee#
32gg#
32ccc#
8.eee#
32r
32cc#
32ff#
32aa
32ccc#
32fff#
8.aaa
=60
32r
32a
32cc#
32ff#
32aa
32ccc#
8.fff#
32r
32f#
32b
32dd
32ff#
32bb
8.ddd
=61
32r
32d
32g#
32b
32dd
32gg#
8.bb
32r
32c#
32e#
32g#
32cc#
32ee#
8.gg#
=62
32r
32f#
32a
32cc#
32ff#
32aa
8.ccc#
32r
32f#
32b
32dd
32ff#
32bb
8.ddd
=63
32r
32g#
32cc#
32ee#
32gg#
32ccc#
8.eee#
32r
32cc#
32ff#
32aa
32ccc#
32fff#
8.aaa
=64
32r
32a
32cc#
32ff#
32aa
32ccc#
8.fff#
32r
32f#
32b
32dd
32ff#
32bb
8.ddd
=65
32r
32d#
32f#
32a
32dd#
32ff#
8.aa
32r
32G#
32c#
32e#
32g#
32cc#
8.ee#
=66
32r
32e
32a
32cc#
32ee
32aa
8.ccc#
4.r
=67
32r
32d
32g#
32b
32dd
32gg#
8.bb
4.r
=68
32r
32c#
32f#
32a
32cc#
32ff#
8.aa
4.r
=69
16B
8b
16d
8b
16f#
8dd
16a
8ff#
=70
32r
32ee
32aa
32ccc#
32eee
32aaa
8.cccc#
4.r
=71
32r
32dd
32gg#
32bb
32ddd
32ggg#
8.bbb
4.r
=72
32r
32cc#
32ff#
32aa
32ccc#
32fff#
8.aaa
4.r
=73
8gg#
16aa
8bb
16ccc#
8ddd
16eee
8fff#
16ggg#
=74
8aaa
16cc#
16ccc#
16bb
16aa
16aa
16gg#
16ff#
16ff#
16ee
16dd
=75
16dd
16ccc#
16dd
16bb
16dd
16bb
16cc#
16bb
16cc#
16aa
16cc#
16aa
=76
8aa
16b
16aa
16gg#
16ff#
16ff#
16ee
16dd
16dd
16cc#
16b
=77
16b
16aa
16b
16gg#
16b
16gg#
16a
16gg
16a
16ff#
16a
16ff#
=78
8ff#
16g
16ff#
16ee
16dd
16dd
16cc#
16b
16b
16a
16g
=79
16g
16ff#
16g
16ee
16g
16ee
16f#
16ee
16f#
16dd
16f#
16dd
=80
16d
16cc#
16d
16b
16d
16b
16c#
16b
16c#
16a
16c#
16a
=81
16B
16f#
16B
16f#
16A
16f#
16G#
16f#
16G#
16e#
16G#
16e#
=82
8.f#
8.r
8.r
8r
16e#
=83
8.r
16d#
16e#
16ff#
16g#
16a
16b
16dd
16cc#
16ddd
=84
16a
16b
16cc#
16a
16g#
16cc#
16d
16e
16f#
16d
16c#
16g#
=85
2.r
=86
2.r
=87
16r
16A
16f#
16c#
16g#
16f#
16a
16c#
16g#
16r
16f#
16c#
=88
16g#
16f#
16a
16g#
16cc#
16a
16ff#
16cc#
16gg#
16ff#
8aa
=89
16gg#
16a
16ff#
8.cc#
16aa
16gg#
16ccc#
16r
16fff#
16ccc#
=90
16ggg#
8fff#
16r
16ggg#
16aa
8r
16ggg#
8fff#
16fff#
=91
2.r
=92
2.r
==
*-
